actions/24/media-playback-pause-symbolic.svg

<?xml version="1.0" encoding="UTF-8" standalone="no"?>
<svg
   xmlns:dc="http://purl.org/dc/elements/1.1/"
   xmlns:cc="http://creativecommons.org/ns#"
   xmlns:rdf="http://www.w3.org/1999/02/22-rdf-syntax-ns#"
   xmlns:svg="http://www.w3.org/2000/svg"
   xmlns="http://www.w3.org/2000/svg"
   height="24"
   width="24"
   version="1.1"
   id="svg6">
  <metadata
     id="metadata12">
    <rdf:RDF>
      <cc:Work
         rdf:about="">
        <dc:format>image/svg+xml</dc:format>
        <dc:type
           rdf:resource="http://purl.org/dc/dcmitype/StillImage" />
        <dc:title></dc:title>
      </cc:Work>
    </rdf:RDF>
  </metadata>
  <defs
     id="defs10" />
  <path
     id="rect839"
     style="fill:#555761;stroke-width:4;stroke-linecap:round;stroke-linejoin:round;stop-color:#000000"
     d="M 5,2 C 4.446,2 4,2.446 4,3 v 18 c 0,0.554 0.446,1 1,1 h 4 c 0.554,0 1,-0.446 1,-1 V 3 C 10,2.446 9.554,2 9,2 Z m 10,0 c -0.554,0 -1,0.446 -1,1 v 18 c 0,0.554 0.446,1 1,1 h 4 c 0.554,0 1,-0.446 1,-1 V 3 C 20,2.446 19.554,2 19,2 Z" />
</svg>

<svg
        xmlns='http://www.w3.org/2000/svg'
        xmlns:svg='http://www.w3.org/2000/svg'
        id='svg6'
        width='24'
        height='24'>
  <path
          id='rect839'
          fill='url(#gpa:foreground) #555761'
          fill-opacity='1'
          fill-rule='nonzero'
          stroke-width='4'
          stroke-linecap='round'
          stroke-linejoin='round'
          d='M 5 2 C 4.446 2, 4 2.446, 4 3 L 4 21 C 4 21.554, 4.446 22, 5 22 L 9 22 C 9.554 22, 10 21.554, 10 21 L 10 3 C 10 2.446, 9.554 2, 9 2 Z M 15 2 C 14.446 2, 14 2.446, 14 3 L 14 21 C 14 21.554, 14.446 22, 15 22 L 19 22 C 19.554 22, 20 21.554, 20 21 L 20 3 C 20 2.446, 19.554 2, 19 2 Z'
          class="foreground">
  </path>
</svg>
